svg/SJJB-OpenStreetMapIcons/accommodation/hostel.svg

<?xml version="1.0" encoding="UTF-8" standalone="no"?>
<!-- Created with Inkscape (http://www.inkscape.org/) -->

<svg
   xmlns:dc="http://purl.org/dc/elements/1.1/"
   xmlns:cc="http://creativecommons.org/ns#"
   xmlns:rdf="http://www.w3.org/1999/02/22-rdf-syntax-ns#"
   xmlns:svg="http://www.w3.org/2000/svg"
   xmlns="http://www.w3.org/2000/svg"
   xmlns:sodipodi="http://sodipodi.sourceforge.net/DTD/sodipodi-0.dtd"
   xmlns:inkscape="http://www.inkscape.org/namespaces/inkscape"
   version="1.0"
   width="580"
   height="580"
   id="svg2"
   sodipodi:version="0.32"
   inkscape:version="0.48.0 r9654"
   sodipodi:docname="accommodation_hostel.svg"
   inkscape:output_extension="org.inkscape.output.svg.inkscape">
  <metadata
     id="metadata2975">
    <rdf:RDF>
      <cc:Work
         rdf:about="">
        <dc:format>image/svg+xml</dc:format>
        <dc:type
           rdf:resource="http://purl.org/dc/dcmitype/StillImage" />
        <cc:license
           rdf:resource="http://web.resource.org/cc/PublicDomain" />
        <dc:language>en</dc:language>
      </cc:Work>
    </rdf:RDF>
  </metadata>
  <sodipodi:namedview
     inkscape:window-height="921"
     inkscape:window-width="1048"
     inkscape:pageshadow="2"
     inkscape:pageopacity="0.0"
     guidetolerance="10.0"
     gridtolerance="10.0"
     objecttolerance="10.0"
     borderopacity="1.0"
     bordercolor="#666666"
     pagecolor="#ffffff"
     id="base"
     inkscape:zoom="0.18415494"
     inkscape:cx="-350.01925"
     inkscape:cy="776.22733"
     inkscape:window-x="1495"
     inkscape:window-y="27"
     inkscape:current-layer="svg2"
     showgrid="false"
     inkscape:window-maximized="0" />
  <defs
     id="defs4">
    <inkscape:perspective
       sodipodi:type="inkscape:persp3d"
       inkscape:vp_x="0 : 290 : 1"
       inkscape:vp_y="0 : 1000 : 0"
       inkscape:vp_z="580 : 290 : 1"
       inkscape:persp3d-origin="290 : 193.33333 : 1"
       id="perspective2441" />
    <inkscape:perspective
       id="perspective3452"
       inkscape:persp3d-origin="30 : 20 : 1"
       inkscape:vp_z="60 : 30 : 1"
       inkscape:vp_y="0 : 1000 : 0"
       inkscape:vp_x="0 : 30 : 1"
       sodipodi:type="inkscape:persp3d" />
    <symbol
       viewBox="244.5 110 489 219.9"
       id="symbol-university">
      <path
         id="path4460"
         d="M79,43l57,119c0,0,21-96,104-96s124,106,124,106l43-133l82-17L0,17L79,43z" />
      <path
         id="path4462"
         d="M94,176l-21,39"
         stroke-width="20"
         stroke="#000000"
         fill="none" />
      <path
         id="path4464"
         d="M300,19c0,10.5-22.6,19-50.5,19S199,29.5,199,19s22.6-19,50.5-19S300,8.5,300,19z" />
      <path
         id="path4466"
         d="M112,216l-16-38L64,88c0,0-9-8-4-35s16-24,16-24"
         stroke-width="20"
         stroke="#000000"
         ill="none" />
    </symbol>
    <inkscape:perspective
       id="perspective4471"
       inkscape:persp3d-origin="372.04724 : 350.78739 : 1"
       inkscape:vp_z="744.09448 : 526.18109 : 1"
       inkscape:vp_y="0 : 1000 : 0"
       inkscape:vp_x="0 : 526.18109 : 1"
       sodipodi:type="inkscape:persp3d" />
    <inkscape:perspective
       id="perspective4668"
       inkscape:persp3d-origin="6 : 4 : 1"
       inkscape:vp_z="12 : 6 : 1"
       inkscape:vp_y="0 : 1000 : 0"
       inkscape:vp_x="0 : 6 : 1"
       sodipodi:type="inkscape:persp3d" />
    <inkscape:perspective
       id="perspective4904"
       inkscape:persp3d-origin="16 : 10.666667 : 1"
       inkscape:vp_z="32 : 16 : 1"
       inkscape:vp_y="0 : 1000 : 0"
       inkscape:vp_x="0 : 16 : 1"
       sodipodi:type="inkscape:persp3d" />
  </defs>
  <g
     id="g1327">
    <path
       d="M 66.275,1.768 C 24.94,1.768 1.704,23.139 1.704,66.804 L 1.704,516.927 C 1.704,557.771 22.599,579.156 63.896,579.156 L 515.92,579.156 C 557.227,579.156 578.149,558.841 578.149,516.927 L 578.149,66.804 C 578.149,24.203 557.227,1.768 514.628,1.768 C 514.624,1.768 66.133,1.625 66.275,1.768 z "
       style="fill:#111;stroke:#eee;stroke-width:3.40799999"
       id="path1329" />
  </g>
  <g
     id="layer3"
     inkscape:label="Layout"
     style="display:none;stroke:#757575;stroke-opacity:1"
     transform="matrix(48.14969,0,0,48.14969,-536.27327,-33.306752)">
    <rect
       style="fill:none;stroke:#757575;stroke-width:0.10000000000000001;stroke-miterlimit:4;stroke-dasharray:none;stroke-opacity:1;display:inline"
       id="rect4134"
       width="10"
       height="10"
       x="1"
       y="1" />
    <rect
       style="fill:none;stroke:#757575;stroke-width:0.10000000000000001;stroke-miterlimit:4;stroke-dasharray:none;stroke-opacity:1;display:inline"
       id="rect4136"
       width="8"
       height="8"
       x="2"
       y="2" />
  </g>
  <path
     style="fill:#ffffff;fill-opacity:1;fill-rule:evenodd;stroke:#ffffff;stroke-width:35.82899857;stroke-linecap:round;stroke-linejoin:miter;stroke-miterlimit:4;stroke-opacity:1;stroke-dasharray:none"
     d="M 47.545774,43.393944 44.346778,538.12088"
     id="path2157"
     inkscape:connector-curvature="0"
     sodipodi:nodetypes="cc" />
  <path
     style="fill:#ffffff;fill-opacity:1;fill-rule:evenodd;stroke:#ffffff;stroke-width:35.82876587;stroke-linecap:butt;stroke-linejoin:miter;stroke-miterlimit:4;stroke-opacity:1;stroke-dasharray:none"
     d="m 50.744772,485.34997 479.849548,3.19899"
     id="path2159"
     inkscape:connector-curvature="0"
     sodipodi:nodetypes="cc" />
  <path
     style="fill:#ffffff;fill-opacity:1;fill-rule:evenodd;stroke:#ffffff;stroke-width:35.82899857;stroke-linecap:round;stroke-linejoin:miter;stroke-miterlimit:4;stroke-opacity:1;stroke-dasharray:none"
     d="m 533.79332,528.52389 3.19899,-384.4845"
     id="path2161"
     inkscape:connector-curvature="0"
     sodipodi:nodetypes="cc" />
  <rect
     style="fill:#ffffff;fill-opacity:1;stroke:#ffffff;stroke-width:34.70238113;stroke-miterlimit:4;stroke-opacity:1;stroke-dasharray:none"
     id="rect2163"
     width="207.96635"
     height="38.605473"
     x="237.12741"
     y="393.63052"
     ry="19.302736" />
  <path
     sodipodi:type="arc"
     style="fill:#ffffff;fill-opacity:1;stroke:#ffffff;stroke-width:2.29999995;stroke-miterlimit:4;stroke-opacity:1;stroke-dasharray:none"
     id="path2167"
     sodipodi:cx="7.7678571"
     sodipodi:cy="16.017857"
     sodipodi:rx="1.5178572"
     sodipodi:ry="1.3392857"
     d="m 9.2857143,16.017857 a 1.5178572,1.3392857 0 1 1 -3.0357144,0 1.5178572,1.3392857 0 1 1 3.0357144,0 z"
     transform="matrix(18.921389,0,0,19.889185,29.572525,29.582841)" />
  <rect
     style="fill:#ffffff;fill-opacity:1;stroke:#ffffff;stroke-width:30.17598343;stroke-miterlimit:4;stroke-opacity:1;stroke-dasharray:none"
     id="rect2169"
     width="80.29081"
     height="6.8938341"
     x="119.97836"
     y="423.96338"
     ry="3.4469171" />
  <path
     style="fill:#ffffff;fill-opacity:1;fill-rule:evenodd;stroke:#ffffff;stroke-width:35.82876587;stroke-linecap:butt;stroke-linejoin:miter;stroke-miterlimit:4;stroke-opacity:1;stroke-dasharray:none"
     d="m 55.503588,249.65197 479.849542,3.19899"
     id="path2159-3"
     inkscape:connector-curvature="0"
     sodipodi:nodetypes="cc" />
  <rect
     style="fill:#ffffff;fill-opacity:1;stroke:#ffffff;stroke-width:34.70238113;stroke-miterlimit:4;stroke-opacity:1;stroke-dasharray:none"
     id="rect2163-5"
     width="207.96635"
     height="38.605473"
     x="241.67268"
     y="159.1862"
     ry="19.302736" />
  <path
     sodipodi:type="arc"
     style="fill:#ffffff;fill-opacity:1;stroke:#ffffff;stroke-width:2.29999995;stroke-miterlimit:4;stroke-opacity:1;stroke-dasharray:none"
     id="path2167-9"
     sodipodi:cx="7.7678571"
     sodipodi:cy="16.017857"
     sodipodi:rx="1.5178572"
     sodipodi:ry="1.3392857"
     d="m 9.2857143,16.017857 a 1.5178572,1.3392857 0 1 1 -3.0357144,0 1.5178572,1.3392857 0 1 1 3.0357144,0 z"
     transform="matrix(18.921389,0,0,19.889185,34.117797,-204.86148)" />
  <rect
     style="fill:#ffffff;fill-opacity:1;stroke:#ffffff;stroke-width:30.17598343;stroke-miterlimit:4;stroke-opacity:1;stroke-dasharray:none"
     id="rect2169-6"
     width="80.29081"
     height="6.8938341"
     x="124.52363"
     y="189.51907"
     ry="3.4469171" />
</svg>

<svg xmlns="http://www.w3.org/2000/svg" viewBox="0 0 580 580" xmlns:xlink="http://www.w3.org/1999/xlink"><path d="m66.28 1.768c-41.34 0-64.57 21.371-64.57 65.04v450.12c0 40.844 20.895 62.23 62.19 62.23h452.02c41.31 0 62.23-20.315 62.23-62.23v-450.12c0-42.601-20.922-65.04-63.52-65.04-.004 0-448.5-.143-448.35 0z" fill="#111" stroke="#eee" stroke-width="3.408"/><g fill="#fff" stroke="#fff"><g fill-rule="evenodd" stroke-width="35.829"><path d="m47.546 43.39l-3.199 494.73" stroke-linecap="round"/><path d="m50.745 485.35l479.85 3.199"/><path d="m533.79 528.52l3.199-384.48" stroke-linecap="round"/></g><rect width="207.97" height="38.605" x="237.13" y="393.63" stroke-width="34.702" rx="19.303"/></g><path d="m9.285714 16.01786a1.517857 1.339286 0 1 1 -3.035714 0 1.517857 1.339286 0 1 1 3.035714 0z" transform="matrix(18.92139 0 0 19.88919 29.573 29.583)" fill="#fff" stroke="#fff" stroke-width="2.3" id="0"/><g fill="#fff" stroke="#fff"><rect width="80.29" height="6.894" x="119.98" y="423.96" stroke-width="30.18" rx="3.447"/><path d="m55.5 249.65l479.85 3.199" fill-rule="evenodd" stroke-width="35.829"/><rect width="207.97" height="38.605" x="241.67" y="159.19" stroke-width="34.702" rx="19.303"/></g><use transform="translate(4.545-234.44)" xlink:href="#0"/><rect width="80.29" height="6.894" x="124.52" y="189.52" fill="#fff" stroke="#fff" stroke-width="30.18" rx="3.447"/></svg>
